; G-Code generated by Simplify3D(R) Version 4.0.0
; Aug 30, 2018 at 12:31:03 PM
; Settings Summary
;   processName,Process1
;   applyToModels,3dprint
;   profileName,Prusa 220 (modified)
;   profileVersion,2018-05-28 22:32:31
;   baseProfile,Default (modified)
;   printMaterial,ABS
;   printQuality,High
;   printExtruders,Both Extruders
;   extruderName,Primary Extruder,Secondary Extruder
;   extruderToolheadNumber,0,1
;   extruderDiameter,0.4,0.3
;   extruderAutoWidth,0,0
;   extruderWidth,0.4,0.3
;   extrusionMultiplier,1,1
;   extruderUseRetract,1,1
;   extruderRetractionDistance,2,2
;   extruderExtraRestartDistance,0,0
;   extruderRetractionZLift,0,0
;   extruderRetractionSpeed,2400,2400
;   extruderUseCoasting,1,0
;   extruderCoastingDistance,0.1,0.2
;   extruderUseWipe,0,0
;   extruderWipeDistance,5,5
;   primaryExtruder,0
;   layerHeight,0.3
;   topSolidLayers,3
;   bottomSolidLayers,3
;   perimeterOutlines,3
;   printPerimetersInsideOut,1
;   startPointOption,2
;   startPointOriginX,0
;   startPointOriginY,0
;   sequentialIslands,0
;   spiralVaseMode,0
;   firstLayerHeightPercentage,100
;   firstLayerWidthPercentage,100
;   firstLayerUnderspeed,0.3
;   useRaft,0
;   raftExtruder,0
;   raftTopLayers,3
;   raftBaseLayers,2
;   raftOffset,3
;   raftSeparationDistance,0.14
;   raftTopInfill,100
;   aboveRaftSpeedMultiplier,0.3
;   useSkirt,1
;   skirtExtruder,0
;   skirtLayers,1
;   skirtOutlines,1
;   skirtOffset,4
;   usePrimePillar,0
;   primePillarExtruder,999
;   primePillarWidth,25
;   primePillarLocation,7
;   primePillarSpeedMultiplier,1
;   useOozeShield,0
;   oozeShieldExtruder,999
;   oozeShieldOffset,2
;   oozeShieldOutlines,1
;   oozeShieldSidewallShape,1
;   oozeShieldSidewallAngle,30
;   oozeShieldSpeedMultiplier,1
;   infillExtruder,0
;   internalInfillPattern,Rectilinear
;   externalInfillPattern,Rectilinear
;   infillPercentage,20
;   outlineOverlapPercentage,40
;   infillExtrusionWidthPercentage,100
;   minInfillLength,5
;   infillLayerInterval,1
;   internalInfillAngles,45,-45
;   overlapInternalInfillAngles,0
;   externalInfillAngles,45,-45
;   generateSupport,1
;   supportExtruder,0
;   supportInfillPercentage,30
;   supportExtraInflation,0
;   supportBaseLayers,0
;   denseSupportExtruder,0
;   denseSupportLayers,0
;   denseSupportInfillPercentage,70
;   supportLayerInterval,1
;   supportHorizontalPartOffset,0.3
;   supportUpperSeparationLayers,1
;   supportLowerSeparationLayers,1
;   supportType,0
;   supportGridSpacing,4
;   maxOverhangAngle,45
;   supportAngles,0
;   temperatureName,Extruder,Bed
;   temperatureNumber,0,0
;   temperatureSetpointCount,1,1
;   temperatureSetpointLayers,1,1
;   temperatureSetpointTemperatures,220,60
;   temperatureStabilizeAtStartup,1,1
;   temperatureHeatedBed,0,1
;   temperatureRelayBetweenLayers,0,0
;   temperatureRelayBetweenLoops,0,0
;   fanLayers,1,2,5,20
;   fanSpeeds,0,25,50,100
;   blipFanToFullPower,0
;   adjustSpeedForCooling,1
;   minSpeedLayerTime,15
;   minCoolingSpeedSlowdown,20
;   increaseFanForCooling,0
;   minFanLayerTime,45
;   maxCoolingFanSpeed,100
;   increaseFanForBridging,0
;   bridgingFanSpeed,100
;   use5D,1
;   relativeEdistances,0
;   allowEaxisZeroing,1
;   independentExtruderAxes,0
;   includeM10123,0
;   stickySupport,1
;   applyToolheadOffsets,0
;   gcodeXoffset,0
;   gcodeYoffset,0
;   gcodeZoffset,0
;   overrideMachineDefinition,1
;   machineTypeOverride,0
;   strokeXoverride,200
;   strokeYoverride,200
;   strokeZoverride,200
;   originOffsetXoverride,0
;   originOffsetYoverride,0
;   originOffsetZoverride,0
;   homeXdirOverride,-1
;   homeYdirOverride,-1
;   homeZdirOverride,-1
;   flipXoverride,1
;   flipYoverride,-1
;   flipZoverride,1
;   toolheadOffsets,0,0|0,0|0,0|0,0|0,0|0,0
;   overrideFirmwareConfiguration,1
;   firmwareTypeOverride,RepRap (Marlin/Repetier/Sprinter)
;   GPXconfigOverride,r2
;   baudRateOverride,115200
;   overridePrinterModels,0
;   printerModelsOverride
;   startingGcode,G28;
;   layerChangeGcode,
;   retractionGcode,
;   toolChangeGcode,;toolchange script
;   endingGcode,M104 S0 ; turn off extruder,M140 S0 ; turn off bed,G28,M84 ; disable motors,
;   exportFileFormat,gcode
;   celebration,0
;   celebrationSong,Take On Me
;   postProcessing,
;   defaultSpeed,3000
;   outlineUnderspeed,0.5
;   solidInfillUnderspeed,0.8
;   supportUnderspeed,0.8
;   rapidXYspeed,4800
;   rapidZspeed,1002
;   minBridgingArea,50
;   bridgingExtraInflation,0
;   bridgingExtrusionMultiplier,1
;   bridgingSpeedMultiplier,1
;   useFixedBridgingAngle,0
;   fixedBridgingAngle,0
;   applyBridgingToPerimeters,0
;   filamentDiameters,1.75|1.75|1.75|1.75|1.75|1.75
;   filamentPricesPerKg,46|46|46|46|46|46
;   filamentDensities,1.25|1.25|1.25|1.25|1.25|1.25
;   useMinPrintHeight,0
;   minPrintHeight,0
;   useMaxPrintHeight,0
;   maxPrintHeight,0
;   useDiaphragm,0
;   diaphragmLayerInterval,20
;   robustSlicing,1
;   mergeAllIntoSolid,0
;   onlyRetractWhenCrossingOutline,1
;   retractBetweenLayers,1
;   useRetractionMinTravel,0
;   retractionMinTravel,3
;   retractWhileWiping,0
;   onlyWipeOutlines,0
;   avoidCrossingOutline,0
;   maxMovementDetourFactor,3
;   toolChangeRetractionDistance,0
;   toolChangeExtraRestartDistance,0
;   toolChangeRetractionSpeed,4800
;   externalThinWallType,0
;   internalThinWallType,2
;   thinWallAllowedOverlapPercentage,10
;   singleExtrusionMinLength,1
;   singleExtrusionMinPrintingWidthPercentage,50
;   singleExtrusionMaxPrintingWidthPercentage,200
;   singleExtrusionEndpointExtension,0.2
;   horizontalSizeCompensation,0
G90
M82
M106 S0
M140 S60
M190 S60
M104 S220 T0
M109 S220 T0
G28;
G92 E0
G1 E-2.0000 F2400
G1 Z0.300 F1002
; process Process1
; layer 1, Z = 0.300
;toolchange script
T0
; tool H0.300 W0.400
; skirt
G1 X78.230 Y80.830 F4800
G1 E0.0000 F720
G92 E0
G1 X78.303 Y80.800 E0.0040 F900
G1 X121.697 Y80.800 E2.1689
G1 X121.770 Y80.830 E2.1728
G1 X124.170 Y83.230 E2.3421
G1 X124.200 Y83.303 E2.3461
G1 X124.200 Y116.697 E4.0121
G1 X124.170 Y116.770 E4.0161
G1 X121.770 Y119.170 E4.1854
G1 X121.697 Y119.200 E4.1893
G1 X78.303 Y119.200 E6.3542
G1 X78.230 Y119.170 E6.3582
G1 X75.830 Y116.770 E6.5275
G1 X75.800 Y116.697 E6.5315
G1 X75.800 Y83.303 E8.1975
G1 X75.830 Y83.230 E8.2014
G1 X78.159 Y80.901 E8.3657
G1 X78.230 Y80.830 F900
G92 E0
G1 E-2.0000 F2400
; inner perimeter
G1 X81.000 Y86.000 F4800
G1 E0.0000 F2400
G92 E0
G1 X119.000 Y86.000 E1.8958 F675
G1 X119.000 Y114.000 E3.2928
G1 X81.000 Y114.000 E5.1886
G1 X81.000 Y86.100 E6.5805
G1 X81.000 Y86.000 F675
G1 X80.600 Y85.600 F4800
G92 E0
G1 X119.400 Y85.600 E1.9357 F675
G1 X119.400 Y114.400 E3.3726
G1 X80.600 Y114.400 E5.3083
G1 X80.600 Y85.700 E6.7402
G1 X80.600 Y85.600 F675
; outer perimeter
G1 X80.200 Y85.200 F4800
G92 E0
G1 X119.800 Y85.200 E1.9757 F450
G1 X119.800 Y114.800 E3.4524
G1 X80.200 Y114.800 E5.4281
G1 X80.200 Y85.300 E6.8998
G1 X80.200 Y85.200 F450
; solid layer
G1 X81.516 Y113.760 F4800
G92 E0
G1 X81.240 Y113.484 E0.0195 F720
G1 X81.240 Y112.918 E0.0477
G1 X82.082 Y113.760 E0.1071
G1 X82.647 Y113.760 E0.1353
G1 X81.240 Y112.353 E0.2346
G1 X81.240 Y111.787 E0.2628
G1 X83.213 Y113.760 E0.4020
G1 X83.779 Y113.760 E0.4302
G1 X81.240 Y111.221 E0.6094
G1 X81.240 Y110.656 E0.6376
G1 X84.344 Y113.760 E0.8566
G1 X84.910 Y113.760 E0.8848
G1 X81.240 Y110.090 E1.1438
G1 X81.240 Y109.524 E1.1720
G1 X85.476 Y113.760 E1.4709
G1 X86.041 Y113.760 E1.4991
G1 X81.240 Y108.959 E1.8378
G1 X81.240 Y108.393 E1.8661
G1 X86.607 Y113.760 E2.2447
G1 X87.173 Y113.760 E2.2730
G1 X81.240 Y107.827 E2.6916
G1 X81.240 Y107.262 E2.7198
G1 X87.738 Y113.760 E3.1783
G1 X88.304 Y113.760 E3.2065
G1 X81.240 Y106.696 E3.7049
G1 X81.240 Y106.130 E3.7331
G1 X88.870 Y113.760 E4.2715
G1 X89.436 Y113.760 E4.2997
G1 X81.240 Y105.564 E4.8779
G1 X81.240 Y104.999 E4.9062
G1 X90.001 Y113.760 E5.5243
G1 X90.567 Y113.760 E5.5525
G1 X81.240 Y104.433 E6.2106
G1 X81.240 Y103.867 E6.2388
G1 X91.133 Y113.760 E6.9368
G1 X91.698 Y113.760 E6.9650
G1 X81.240 Y103.302 E7.7029
G1 X81.240 Y102.736 E7.7311
G1 X92.264 Y113.760 E8.5089
G1 X92.830 Y113.760 E8.5371
G1 X81.240 Y102.170 E9.3549
G1 X81.240 Y101.605 E9.3831
G1 X93.395 Y113.760 E10.2407
G1 X93.961 Y113.760 E10.2689
G1 X81.240 Y101.039 E11.1665
G1 X81.240 Y100.473 E11.1947
G1 X94.527 Y113.760 E12.1321
G1 X95.092 Y113.760 E12.1604
G1 X81.240 Y99.908 E13.1377
G1 X81.240 Y99.342 E13.1659
G1 X95.658 Y113.760 E14.1832
G1 X96.224 Y113.760 E14.2114
G1 X81.240 Y98.776 E15.2686
G1 X81.240 Y98.211 E15.2968
G1 X96.789 Y113.760 E16.3939
G1 X97.355 Y113.760 E16.4222
G1 X81.240 Y97.645 E17.5592
G1 X81.240 Y97.079 E17.5874
G1 X97.921 Y113.760 E18.7643
G1 X98.487 Y113.760 E18.7925
G1 X81.240 Y96.513 E20.0094
G1 X81.240 Y95.948 E20.0376
G1 X99.052 Y113.760 E21.2943
G1 X99.618 Y113.760 E21.3226
G1 X81.240 Y95.382 E22.6192
G1 X81.240 Y94.816 E22.6474
G1 X100.184 Y113.760 E23.9840
G1 X100.749 Y113.760 E24.0122
G1 X81.240 Y94.251 E25.3887
G1 X81.240 Y93.685 E25.4169
G1 X101.315 Y113.760 E26.8333
G1 X101.881 Y113.760 E26.8616
G1 X81.240 Y93.119 E28.3179
G1 X81.240 Y92.554 E28.3461
G1 X102.446 Y113.760 E29.8423
G1 X103.012 Y113.760 E29.8705
G1 X81.240 Y91.988 E31.4067
G1 X81.240 Y91.422 E31.4349
G1 X103.578 Y113.760 E33.0109
G1 X104.143 Y113.760 E33.0392
G1 X81.240 Y90.857 E34.6551
G1 X81.240 Y90.291 E34.6833
G1 X104.709 Y113.760 E36.3392
G1 X105.275 Y113.760 E36.3674
G1 X81.240 Y89.725 E38.0632
G1 X81.240 Y89.160 E38.0914
G1 X105.840 Y113.760 E39.8271
G1 X106.406 Y113.760 E39.8553
G1 X81.240 Y88.594 E41.6309
G1 X81.240 Y88.028 E41.6592
G1 X106.972 Y113.760 E43.4747
G1 X107.537 Y113.760 E43.5029
G1 X81.240 Y87.463 E45.3583
G1 X81.240 Y86.897 E45.3866
G1 X108.103 Y113.760 E47.2819
G1 X108.669 Y113.760 E47.3101
G1 X81.240 Y86.331 E49.2454
G1 X81.240 Y86.240 E49.2499
G1 X81.715 Y86.240 E49.2736
G1 X109.235 Y113.760 E51.2153
G1 X109.800 Y113.760 E51.2435
G1 X82.280 Y86.240 E53.1852
G1 X82.846 Y86.240 E53.2134
G1 X110.366 Y113.760 E55.1551
G1 X110.932 Y113.760 E55.1833
G1 X83.412 Y86.240 E57.1250
G1 X83.977 Y86.240 E57.1532
G1 X111.497 Y113.760 E59.0949
G1 X112.063 Y113.760 E59.1231
G1 X84.543 Y86.240 E61.0648
G1 X85.109 Y86.240 E61.0930
G1 X112.629 Y113.760 E63.0347
G1 X113.194 Y113.760 E63.0629
G1 X85.674 Y86.240 E65.0046
G1 X86.240 Y86.240 E65.0329
G1 X113.760 Y113.760 E66.9745
G1 X114.326 Y113.760 E67.0028
G1 X86.806 Y86.240 E68.9444
G1 X87.371 Y86.240 E68.9727
G1 X114.891 Y113.760 E70.9144
G1 X115.457 Y113.760 E70.9426
G1 X87.937 Y86.240 E72.8843
G1 X88.503 Y86.240 E72.9125
G1 X116.023 Y113.760 E74.8542
G1 X116.588 Y113.760 E74.8824
G1 X89.068 Y86.240 E76.8241
G1 X89.634 Y86.240 E76.8523
G1 X117.154 Y113.760 E78.7940
G1 X117.720 Y113.760 E78.8222
G1 X90.200 Y86.240 E80.7639
G1 X90.765 Y86.240 E80.7921
G1 X118.285 Y113.760 E82.7338
G1 X118.760 Y113.760 E82.7575
G1 X118.760 Y113.669 E82.7620
G1 X91.331 Y86.240 E84.6973
G1 X91.897 Y86.240 E84.7255
G1 X118.760 Y113.103 E86.6208
G1 X118.760 Y112.537 E86.6490
G1 X92.463 Y86.240 E88.5045
G1 X93.028 Y86.240 E88.5327
G1 X118.760 Y111.972 E90.3482
G1 X118.760 Y111.406 E90.3764
G1 X93.594 Y86.240 E92.1520
G1 X94.160 Y86.240 E92.1803
G1 X118.760 Y110.840 E93.9159
G1 X118.760 Y110.275 E93.9442
G1 X94.725 Y86.240 E95.6399
G1 X95.291 Y86.240 E95.6682
G1 X118.760 Y109.709 E97.3240
G1 X118.760 Y109.143 E97.3523
G1 X95.857 Y86.240 E98.9682
G1 X96.422 Y86.240 E98.9964
G1 X118.760 Y108.578 E100.5725
G1 X118.760 Y108.012 E100.6007
G1 X96.988 Y86.240 E102.1368
G1 X97.554 Y86.240 E102.1650
G1 X118.760 Y107.446 E103.6613
G1 X118.760 Y106.881 E103.6895
G1 X98.119 Y86.240 E105.1458
G1 X98.685 Y86.240 E105.1740
G1 X118.760 Y106.315 E106.5904
G1 X118.760 Y105.749 E106.6186
G1 X99.251 Y86.240 E107.9951
G1 X99.816 Y86.240 E108.0233
G1 X118.760 Y105.184 E109.3599
G1 X118.760 Y104.618 E109.3881
G1 X100.382 Y86.240 E110.6848
G1 X100.948 Y86.240 E110.7130
G1 X118.760 Y104.052 E111.9697
G1 X118.760 Y103.486 E111.9980
G1 X101.514 Y86.240 E113.2148
G1 X102.079 Y86.240 E113.2430
G1 X118.760 Y102.921 E114.4199
G1 X118.760 Y102.355 E114.4482
G1 X102.645 Y86.240 E115.5852
G1 X103.211 Y86.240 E115.6134
G1 X118.760 Y101.789 E116.7105
G1 X118.760 Y101.224 E116.7387
G1 X103.776 Y86.240 E117.7959
G1 X104.342 Y86.240 E117.8241
G1 X118.760 Y100.658 E118.8414
G1 X118.760 Y100.092 E118.8696
G1 X104.908 Y86.240 E119.8470
G1 X105.473 Y86.240 E119.8752
G1 X118.760 Y99.527 E120.8126
G1 X118.760 Y98.961 E120.8409
G1 X106.039 Y86.240 E121.7384
G1 X106.605 Y86.240 E121.7666
G1 X118.760 Y98.395 E122.6242
G1 X118.760 Y97.830 E122.6525
G1 X107.170 Y86.240 E123.4702
G1 X107.736 Y86.240 E123.4984
G1 X118.760 Y97.264 E124.2762
G1 X118.760 Y96.698 E124.3044
G1 X108.302 Y86.240 E125.0423
G1 X108.867 Y86.240 E125.0705
G1 X118.760 Y96.133 E125.7685
G1 X118.760 Y95.567 E125.7967
G1 X109.433 Y86.240 E126.4548
G1 X109.999 Y86.240 E126.4830
G1 X118.760 Y95.001 E127.1012
G1 X118.760 Y94.436 E127.1294
G1 X110.564 Y86.240 E127.7076
G1 X111.130 Y86.240 E127.7358
G1 X118.760 Y93.870 E128.2742
G1 X118.760 Y93.304 E128.3024
G1 X111.696 Y86.240 E128.8008
G1 X112.262 Y86.240 E128.8290
G1 X118.760 Y92.738 E129.2875
G1 X118.760 Y92.173 E129.3157
G1 X112.827 Y86.240 E129.7343
G1 X113.393 Y86.240 E129.7626
G1 X118.760 Y91.607 E130.1412
G1 X118.760 Y91.041 E130.1695
G1 X113.959 Y86.240 E130.5082
G1 X114.524 Y86.240 E130.5364
G1 X118.760 Y90.476 E130.8353
G1 X118.760 Y89.910 E130.8635
G1 X115.090 Y86.240 E131.1225
G1 X115.656 Y86.240 E131.1507
G1 X118.760 Y89.344 E131.3697
G1 X118.760 Y88.779 E131.3979
G1 X116.221 Y86.240 E131.5770
G1 X116.787 Y86.240 E131.6053
G1 X118.760 Y88.213 E131.7445
G1 X118.760 Y87.647 E131.7727
G1 X117.353 Y86.240 E131.8720
G1 X117.918 Y86.240 E131.9002
G1 X118.760 Y87.082 E131.9596
G1 X118.760 Y86.516 E131.9878
G1 X118.555 Y86.311 E132.0023
G1 X118.484 Y86.240 F720
G92 E0
G1 E-2.0000 F2400
; layer 2, Z = 0.600
M106 S63
; inner perimeter
G1 X119.000 Y86.000 F4800
G1 Z0.600 F1002
G1 E0.0000 F2400
G92 E0
G1 X119.000 Y114.000 E1.3969 F2250
G1 X81.000 Y114.000 E3.2928
G1 X81.000 Y86.000 E4.6897
G1 X118.900 Y86.000 E6.5805
G1 X119.000 Y86.000 F2250
G1 X119.400 Y85.600 F4800
G92 E0
G1 X119.400 Y114.400 E1.4368 F2250
G1 X80.600 Y114.400 E3.3726
G1 X80.600 Y85.600 E4.8094
G1 X119.300 Y85.600 E6.7402
G1 X119.400 Y85.600 F2250
; outer perimeter
G1 X119.800 Y85.200 F4800
G92 E0
G1 X119.800 Y114.800 E1.4767 F1500
G1 X80.200 Y114.800 E3.4524
G1 X80.200 Y85.200 E4.9292
G1 X119.700 Y85.200 E6.8998
G1 X119.800 Y85.200 F1500
; solid layer
G1 X118.760 Y113.484 F4800
G92 E0
G1 X118.484 Y113.760 E0.0195 F2400
G1 X117.918 Y113.760 E0.0477
G1 X118.760 Y112.918 E0.1071
G1 X118.760 Y112.353 E0.1353
G1 X117.353 Y113.760 E0.2346
G1 X116.787 Y113.760 E0.2628
G1 X118.760 Y111.787 E0.4020
G1 X118.760 Y111.221 E0.4302
G1 X116.221 Y113.760 E0.6093
G1 X115.656 Y113.760 E0.6376
G1 X118.760 Y110.656 E0.8566
G1 X118.760 Y110.090 E0.8848
G1 X115.090 Y113.760 E1.1438
G1 X114.524 Y113.760 E1.1720
G1 X118.760 Y109.524 E1.4708
G1 X118.760 Y108.959 E1.4990
G1 X113.959 Y113.760 E1.8378
G1 X113.393 Y113.760 E1.8660
G1 X118.760 Y108.393 E2.2447
G1 X118.760 Y107.827 E2.2729
G1 X112.827 Y113.760 E2.6915
G1 X112.262 Y113.760 E2.7197
G1 X118.760 Y107.262 E3.1782
G1 X118.760 Y106.696 E3.2065
G1 X111.696 Y113.760 E3.7049
G1 X111.130 Y113.760 E3.7331
G1 X118.760 Y106.130 E4.2714
G1 X118.760 Y105.565 E4.2996
G1 X110.565 Y113.760 E4.8779
G1 X109.999 Y113.760 E4.9061
G1 X118.760 Y104.999 E5.5243
G1 X118.760 Y104.433 E5.5525
G1 X109.433 Y113.760 E6.2105
G1 X108.867 Y113.760 E6.2388
G1 X118.760 Y103.867 E6.9367
G1 X118.760 Y103.302 E6.9650
G1 X108.302 Y113.760 E7.7028
G1 X107.736 Y113.760 E7.7311
G1 X118.760 Y102.736 E8.5089
G1 X118.760 Y102.170 E8.5371
G1 X107.170 Y113.760 E9.3548
G1 X106.605 Y113.760 E9.3830
G1 X118.760 Y101.605 E10.2406
G1 X118.760 Y101.039 E10.2689
G1 X106.039 Y113.760 E11.1664
G1 X105.473 Y113.760 E11.1946
G1 X118.760 Y100.473 E12.1321
G1 X118.760 Y99.908 E12.1603
G1 X104.908 Y113.760 E13.1376
G1 X104.342 Y113.760 E13.1659
G1 X118.760 Y99.342 E14.1831
G1 X118.760 Y98.776 E14.2114
G1 X103.776 Y113.760 E15.2685
G1 X103.211 Y113.760 E15.2968
G1 X118.760 Y98.211 E16.3939
